static/icons/logo.svg

<?xml version="1.0" encoding="UTF-8"?>
<svg xmlns="http://www.w3.org/2000/svg" xmlns:xlink="http://www.w3.org/1999/xlink" width="224.87999pt" height="225pt" viewBox="0 0 224.87999 225" version="1.2">
<defs>
<g>
<symbol overflow="visible" id="glyph0-0">
<path style="stroke:none;" d=""/>
</symbol>
<symbol overflow="visible" id="glyph0-1">
<path style="stroke:none;" d="M 2.71875 -9.1875 C 2.71875 -8.695312 2.910156 -8.238281 3.296875 -7.8125 C 3.679688 -7.394531 4.148438 -7.023438 4.703125 -6.703125 C 5.265625 -6.390625 5.816406 -6.066406 6.359375 -5.734375 C 6.910156 -5.398438 7.378906 -4.992188 7.765625 -4.515625 C 8.148438 -4.035156 8.34375 -3.503906 8.34375 -2.921875 C 8.34375 -2.003906 8.003906 -1.253906 7.328125 -0.671875 C 6.648438 -0.0859375 5.734375 0.203125 4.578125 0.203125 C 3.429688 0.203125 2.289062 -0.015625 1.15625 -0.453125 L 1.15625 -1.25 C 2.300781 -0.675781 3.273438 -0.390625 4.078125 -0.390625 C 4.878906 -0.390625 5.503906 -0.582031 5.953125 -0.96875 C 6.398438 -1.363281 6.625 -1.910156 6.625 -2.609375 C 6.625 -3.078125 6.4375 -3.503906 6.0625 -3.890625 C 5.695312 -4.273438 5.25 -4.609375 4.71875 -4.890625 C 4.195312 -5.179688 3.671875 -5.476562 3.140625 -5.78125 C 2.609375 -6.082031 2.160156 -6.460938 1.796875 -6.921875 C 1.429688 -7.390625 1.25 -7.953125 1.25 -8.609375 C 1.25 -9.273438 1.539062 -9.894531 2.125 -10.46875 C 2.707031 -11.039062 3.582031 -11.328125 4.75 -11.328125 C 5.507812 -11.328125 6.472656 -11.148438 7.640625 -10.796875 L 7.46875 -9.65625 C 5.957031 -10.300781 4.664062 -10.625 3.59375 -10.625 C 3.007812 -10.351562 2.71875 -9.875 2.71875 -9.1875 Z M 2.71875 -9.1875 "/>
</symbol>
<symbol overflow="visible" id="glyph0-2">
<path style="stroke:none;" d="M 13.375 -11.125 L 14.203125 -11.125 L 10.046875 0.25 L 9.78125 0.25 L 7.203125 -6.640625 L 4.6875 0.25 L 4.421875 0.25 L 0.171875 -11.125 L 2 -11.125 L 4.953125 -2.015625 L 6.84375 -7.625 L 5.53125 -11.125 L 7.359375 -11.125 L 10.3125 -2.015625 Z M 13.375 -11.125 "/>
</symbol>
<symbol overflow="visible" id="glyph0-3">
<path style="stroke:none;" d="M 3.0625 -11.125 L 3.0625 0 L 1.515625 0 L 1.515625 -11.125 Z M 3.0625 -11.125 "/>
</symbol>
<symbol overflow="visible" id="glyph0-4">
<path style="stroke:none;" d="M 5.3125 0 L 3.671875 0 L 3.671875 -10.3125 C 3.296875 -10.40625 2.914062 -10.453125 2.53125 -10.453125 L 0.265625 -9.921875 L 0.171875 -11.125 L 8.8125 -11.125 L 8.734375 -9.921875 L 6.453125 -10.453125 C 6.066406 -10.453125 5.6875 -10.40625 5.3125 -10.3125 Z M 5.3125 0 "/>
</symbol>
<symbol overflow="visible" id="glyph0-5">
<path style="stroke:none;" d="M 6.5625 -11.328125 C 8.019531 -11.328125 9.222656 -10.847656 10.171875 -9.890625 C 11.128906 -8.929688 11.609375 -7.597656 11.609375 -5.890625 C 11.609375 -4.796875 11.414062 -3.835938 11.03125 -3.015625 C 10.65625 -2.191406 10.160156 -1.554688 9.546875 -1.109375 C 8.347656 -0.234375 7.023438 0.203125 5.578125 0.203125 C 4.128906 0.203125 2.929688 -0.28125 1.984375 -1.25 C 1.046875 -2.21875 0.578125 -3.550781 0.578125 -5.25 C 0.578125 -6.132812 0.703125 -6.929688 0.953125 -7.640625 C 1.203125 -8.359375 1.53125 -8.941406 1.9375 -9.390625 C 2.34375 -9.835938 2.816406 -10.210938 3.359375 -10.515625 C 4.347656 -11.054688 5.414062 -11.328125 6.5625 -11.328125 Z M 3.1875 -1.921875 C 3.476562 -1.421875 3.867188 -1.035156 4.359375 -0.765625 C 4.859375 -0.492188 5.425781 -0.359375 6.0625 -0.359375 C 6.707031 -0.359375 7.28125 -0.519531 7.78125 -0.84375 C 8.289062 -1.164062 8.6875 -1.585938 8.96875 -2.109375 C 9.539062 -3.160156 9.828125 -4.296875 9.828125 -5.515625 C 9.828125 -7.003906 9.53125 -8.203125 8.9375 -9.109375 C 8.269531 -10.117188 7.175781 -10.625 5.65625 -10.625 C 4.570312 -10.25 3.75 -9.59375 3.1875 -8.65625 C 2.625 -7.726562 2.34375 -6.679688 2.34375 -5.515625 C 2.34375 -4.078125 2.625 -2.878906 3.1875 -1.921875 Z M 3.1875 -1.921875 "/>
</symbol>
</g>
<clipPath id="clip1">
  <path d="M 64 51.859375 L 160.675781 51.859375 L 160.675781 146.308594 L 64 146.308594 Z M 64 51.859375 "/>
</clipPath>
<clipPath id="clip2">
  <path d="M 92.285156 72.746094 L 132.765625 72.746094 L 132.765625 149.207031 L 92.285156 149.207031 Z M 92.285156 72.746094 "/>
</clipPath>
<clipPath id="clip3">
  <path d="M 22.488281 122.667969 L 202.390625 122.667969 L 202.390625 156.398438 L 22.488281 156.398438 Z M 22.488281 122.667969 "/>
</clipPath>
</defs>
<g id="surface1">
<g clip-path="url(#clip1)" clip-rule="nonzero">
<path style=" stroke:none;fill-rule:nonzero;fill:rgb(25.099182%,25.099182%,25.099182%);fill-opacity:1;" d="M 160.605469 75.292969 L 160.605469 146.308594 L 64.046875 146.308594 L 64.046875 75.292969 L 112.324219 51.859375 Z M 160.605469 75.292969 "/>
</g>
<g clip-path="url(#clip2)" clip-rule="nonzero">
<path style=" stroke:none;fill-rule:nonzero;fill:rgb(100%,100%,100%);fill-opacity:1;" d="M 114.289062 77.273438 C 110.273438 77.273438 107.019531 82.914062 107.019531 89.867188 C 107.007812 92.019531 107.335938 94.117188 107.996094 96.164062 C 108.125 96.59375 108.28125 97.011719 108.476562 97.417969 C 108.902344 98.441406 109.46875 99.382812 110.164062 100.246094 C 112.0625 103.148438 113.042969 104.347656 112.933594 108.949219 C 112.796875 114.625 111.175781 144.035156 111.175781 144.035156 C 111.175781 144.035156 110.496094 149.023438 114.425781 149.160156 C 118.351562 149.296875 117.125 142.539062 117.125 142.539062 C 117.125 142.539062 115.570312 110.882812 115.730469 106.648438 C 115.84375 103.5625 117.585938 101.976562 119.183594 99.152344 C 119.933594 97.945312 120.488281 96.652344 120.851562 95.277344 L 120.910156 95.097656 L 120.910156 95.0625 C 121.351562 93.359375 121.570312 91.628906 121.566406 89.867188 C 121.566406 82.914062 118.296875 77.273438 114.289062 77.273438 Z M 116.046875 100.046875 C 112.117188 100.046875 108.925781 95.328125 108.925781 89.519531 C 108.925781 84.902344 110.933594 80.984375 113.726562 79.554688 C 111.566406 81.445312 110.140625 85.035156 110.140625 89.152344 C 110.140625 94.671875 112.75 99.242188 116.15625 100.039062 Z M 130.070312 148.574219 C 126.414062 148.453125 127.039062 143.960938 127.039062 143.960938 C 127.039062 143.960938 128.109375 125.4375 128.519531 116.40625 C 127 115.652344 125.257812 114.472656 124.265625 112.738281 C 122.246094 109.195312 126.292969 83.664062 126.988281 78.21875 C 127.265625 76.039062 127.859375 74.558594 128.507812 73.558594 C 129.449219 72.085938 130.90625 72.914062 130.925781 74.644531 L 131.433594 116.878906 C 131.789062 126.472656 132.601562 142.613281 132.601562 142.613281 C 132.601562 142.613281 133.734375 148.6875 130.070312 148.566406 Z M 104.785156 81.265625 L 104.785156 99.746094 C 104.78125 100.21875 104.667969 100.664062 104.445312 101.078125 C 104.238281 101.550781 104 102.003906 103.730469 102.441406 C 102.238281 105.074219 100.003906 106.558594 99.890625 109.441406 C 99.742188 113.398438 101.195312 142.984375 101.195312 142.984375 C 101.195312 142.984375 102.328125 149.300781 98.671875 149.171875 C 95.015625 149.042969 95.636719 144.375 95.636719 144.375 C 95.636719 144.375 97.148438 116.898438 97.273438 111.59375 C 97.378906 107.292969 95.84375 106.175781 94.058594 103.460938 C 93.546875 102.757812 93.132812 102.003906 92.8125 101.195312 C 92.433594 100.457031 92.257812 99.675781 92.285156 98.847656 L 92.285156 80.863281 C 92.285156 80.257812 92.714844 79.433594 93.25 79.433594 C 93.785156 79.433594 94.214844 80.253906 94.214844 81.273438 L 94.214844 94.851562 C 94.214844 95.042969 94.28125 95.203125 94.414062 95.335938 C 94.546875 95.472656 94.710938 95.539062 94.898438 95.539062 C 95.089844 95.539062 95.25 95.472656 95.382812 95.335938 C 95.519531 95.203125 95.585938 95.042969 95.585938 94.851562 L 95.585938 81.265625 C 95.585938 80.246094 96.085938 79.425781 96.695312 79.425781 C 97.304688 79.425781 97.808594 80.246094 97.808594 81.265625 L 97.808594 94.851562 C 97.824219 95.03125 97.894531 95.183594 98.027344 95.308594 C 98.160156 95.429688 98.316406 95.492188 98.496094 95.492188 C 98.675781 95.492188 98.835938 95.429688 98.964844 95.308594 C 99.097656 95.183594 99.171875 95.03125 99.183594 94.851562 L 99.183594 81.265625 C 99.183594 80.246094 99.683594 79.425781 100.296875 79.425781 C 100.914062 79.425781 101.410156 80.246094 101.410156 81.265625 L 101.410156 94.851562 C 101.410156 95.042969 101.476562 95.203125 101.609375 95.335938 C 101.742188 95.472656 101.90625 95.539062 102.09375 95.539062 C 102.285156 95.539062 102.445312 95.472656 102.578125 95.335938 C 102.714844 95.203125 102.78125 95.042969 102.78125 94.851562 L 102.78125 81.265625 C 102.78125 80.246094 103.230469 79.425781 103.785156 79.425781 C 104.335938 79.425781 104.785156 80.246094 104.785156 81.265625 Z M 104.785156 81.265625 "/>
</g>
<g clip-path="url(#clip3)" clip-rule="nonzero">
<path style=" stroke:none;fill-rule:nonzero;fill:rgb(100%,59.999084%,27.449036%);fill-opacity:1;" d="M 53.058594 122.671875 L 46.972656 130.289062 L 46.972656 146.90625 L 22.488281 146.90625 L 34.996094 134.605469 L 22.488281 122.671875 Z M 202.390625 122.671875 L 171.828125 122.671875 L 177.902344 130.289062 L 177.902344 146.90625 L 202.390625 146.90625 L 189.882812 134.605469 Z M 49.121094 156.398438 L 175.34375 156.398438 L 175.34375 132.152344 L 49.121094 132.152344 Z M 49.121094 156.398438 "/>
</g>
<g style="fill:rgb(100%,100%,100%);fill-opacity:1;">
  <use xlink:href="#glyph0-1" x="87.71953" y="149.709256"/>
</g>
<g style="fill:rgb(100%,100%,100%);fill-opacity:1;">
  <use xlink:href="#glyph0-2" x="97.057537" y="149.709256"/>
</g>
<g style="fill:rgb(100%,100%,100%);fill-opacity:1;">
  <use xlink:href="#glyph0-3" x="111.434043" y="149.709256"/>
</g>
<g style="fill:rgb(100%,100%,100%);fill-opacity:1;">
  <use xlink:href="#glyph0-4" x="116.002279" y="149.709256"/>
</g>
<g style="fill:rgb(100%,100%,100%);fill-opacity:1;">
  <use xlink:href="#glyph0-5" x="124.98759" y="149.709256"/>
</g>
</g>
</svg>

<svg xmlns="http://www.w3.org/2000/svg" xmlns:xlink="http://www.w3.org/1999/xlink" width="121.733" height="104.767" viewBox="0 0 121.733 104.767">
  <defs>
    <clipPath id="clip-path">
      <path id="Path_2" data-name="Path 2" d="M64,51.859h96.676v94.678H64Zm0,0" transform="translate(-64 -51.859)"/>
    </clipPath>
    <clipPath id="clip-path-2">
      <path id="Path_4" data-name="Path 4" d="M92.285,72.746h40.481v76.461H92.285Zm0,0" transform="translate(-92.285 -72.746)"/>
    </clipPath>
    <clipPath id="clip-path-3">
      <path id="Path_6" data-name="Path 6" d="M22.488,122.668H144.222V156.4H22.488Zm0,0" transform="translate(-22.488 -122.668)"/>
    </clipPath>
  </defs>
  <g id="brand-logo" transform="translate(-22.488 -51.859)">
    <g id="Group_1" data-name="Group 1" transform="translate(34.986 51.859)" clip-path="url(#clip-path)">
      <path id="Path_1" data-name="Path 1" d="M160.6,75.35v71.187H64.047V75.35l48.277-23.49Zm0,0" transform="translate(-64 -51.859)" fill="#404040"/>
    </g>
    <g id="Group_2" data-name="Group 2" transform="translate(63.165 72.974)" clip-path="url(#clip-path-2)">
      <path id="Path_3" data-name="Path 3" d="M114.289,77.273c-4.016,0-7.269,5.641-7.269,12.594a20.025,20.025,0,0,0,.976,6.3,8.488,8.488,0,0,0,.481,1.254,11.572,11.572,0,0,0,1.687,2.828c1.9,2.9,2.879,4.1,2.77,8.7-.137,5.676-1.758,35.086-1.758,35.086s-.68,4.988,3.25,5.125,2.7-6.621,2.7-6.621-1.555-31.656-1.395-35.891c.114-3.085,1.856-4.671,3.454-7.5a14.172,14.172,0,0,0,1.668-3.875l.058-.18v-.035a20.4,20.4,0,0,0,.656-5.2C121.566,82.914,118.3,77.273,114.289,77.273Zm1.758,22.774c-3.93,0-7.121-4.719-7.121-10.527,0-4.617,2.008-8.535,4.8-9.965-2.161,1.891-3.586,5.48-3.586,9.6,0,5.52,2.609,10.09,6.015,10.887Zm14.023,48.527c-3.656-.121-3.031-4.613-3.031-4.613s1.07-18.523,1.481-27.555a9.863,9.863,0,0,1-4.254-3.668c-2.02-3.543,2.027-29.074,2.722-34.519a11.024,11.024,0,0,1,1.52-4.66c.941-1.473,2.4-.645,2.418,1.086l.508,42.234c.355,9.594,1.168,25.734,1.168,25.734s1.132,6.075-2.532,5.953ZM104.785,81.266v18.48a2.82,2.82,0,0,1-.34,1.332,10.9,10.9,0,0,1-.715,1.363c-1.492,2.633-3.726,4.118-3.839,7-.148,3.957,1.3,33.543,1.3,33.543s1.133,6.317-2.523,6.188-3.035-4.8-3.035-4.8,1.512-27.477,1.637-32.781c.105-4.3-1.43-5.418-3.215-8.133a10.229,10.229,0,0,1-1.246-2.266,4.714,4.714,0,0,1-.527-2.347V80.863c0-.605.43-1.43.965-1.43s.965.82.965,1.84V94.852a.687.687,0,0,0,.684.688.694.694,0,0,0,.688-.687V81.266c0-1.02.5-1.84,1.109-1.84s1.113.82,1.113,1.84V94.852a.686.686,0,0,0,.219.457.675.675,0,0,0,.469.184.689.689,0,0,0,.688-.641V81.266c0-1.02.5-1.84,1.113-1.84s1.113.82,1.113,1.84V94.852a.66.66,0,0,0,.2.484.653.653,0,0,0,.485.2.694.694,0,0,0,.687-.687V81.266c0-1.02.449-1.84,1-1.84S104.785,80.246,104.785,81.266Zm0,0" transform="translate(-92.285 -72.746)" fill="#fff"/>
    </g>
    <g id="Group_3" data-name="Group 3" transform="translate(22.488 122.896)" clip-path="url(#clip-path-3)">
      <path id="Path_5" data-name="Path 5" d="M43.174,122.672l-4.118,7.617v16.617H22.488l8.464-12.3-8.464-11.933Zm101.048,0H123.541l4.11,7.617v16.617h16.571l-8.464-12.3ZM40.51,156.4h85.41V132.152H40.51Zm0,0" transform="translate(-22.488 -122.668)" fill="#ff9946"/>
    </g>
    <g id="Group_5" data-name="Group 5" transform="translate(66.517 138.609)">
      <g id="Group_4" data-name="Group 4">
        <path id="Path_7" data-name="Path 7" d="M2.719-9.187A2.008,2.008,0,0,0,3.3-7.812,5.868,5.868,0,0,0,4.7-6.7q.844.469,1.656.969A5.44,5.44,0,0,1,7.766-4.516a2.5,2.5,0,0,1,.578,1.594A2.835,2.835,0,0,1,7.328-.672,4.062,4.062,0,0,1,4.578.2,9.433,9.433,0,0,1,1.156-.453v-.8a6.785,6.785,0,0,0,2.922.859A2.783,2.783,0,0,0,5.953-.969a2.081,2.081,0,0,0,.672-1.641,1.8,1.8,0,0,0-.562-1.281,5.241,5.241,0,0,0-1.344-1C4.2-5.18,3.672-5.477,3.141-5.781A4.53,4.53,0,0,1,1.8-6.922,2.651,2.651,0,0,1,1.25-8.609a2.575,2.575,0,0,1,.875-1.859,3.612,3.612,0,0,1,2.625-.859,10.5,10.5,0,0,1,2.891.531L7.469-9.656a10.237,10.237,0,0,0-3.875-.969A1.452,1.452,0,0,0,2.719-9.187Zm0,0" transform="translate(-1.156 11.328)"/>
      </g>
    </g>
    <g id="Group_7" data-name="Group 7" transform="translate(71.018 138.812)">
      <g id="Group_6" data-name="Group 6">
        <path id="Path_8" data-name="Path 8" d="M13.375-11.125H14.2L10.047.25H9.781L7.2-6.641,4.688.25H4.422L.172-11.125H2L4.953-2.016,6.844-7.625l-1.312-3.5H7.359l2.953,9.109Zm0,0" transform="translate(-0.172 11.125)"/>
      </g>
    </g>
    <g id="Group_9" data-name="Group 9" transform="translate(83.446 138.812)">
      <g id="Group_8" data-name="Group 8">
        <path id="Path_9" data-name="Path 9" d="M3.063-11.125V0H1.516V-11.125Zm0,0" transform="translate(-1.516 11.125)"/>
      </g>
    </g>
    <g id="Group_11" data-name="Group 11" transform="translate(84.353 138.812)">
      <g id="Group_10" data-name="Group 10">
        <path id="Path_10" data-name="Path 10" d="M5.313,0H3.672V-10.312a4.7,4.7,0,0,0-1.141-.141L.266-9.922l-.094-1.2H8.813l-.078,1.2-2.281-.531a4.675,4.675,0,0,0-1.141.141Zm0,0" transform="translate(-0.172 11.125)"/>
      </g>
    </g>
    <g id="Group_13" data-name="Group 13" transform="translate(90.06 138.609)">
      <g id="Group_12" data-name="Group 12">
        <path id="Path_11" data-name="Path 11" d="M6.563-11.328a4.871,4.871,0,0,1,3.609,1.437,5.418,5.418,0,0,1,1.438,4,6.744,6.744,0,0,1-.578,2.875A4.692,4.692,0,0,1,9.547-1.109,6.584,6.584,0,0,1,5.578.2,4.81,4.81,0,0,1,1.984-1.25a5.508,5.508,0,0,1-1.406-4A7.174,7.174,0,0,1,.953-7.641a5.041,5.041,0,0,1,.984-1.75,5.653,5.653,0,0,1,1.422-1.125A6.583,6.583,0,0,1,6.563-11.328ZM3.188-1.922A3,3,0,0,0,4.359-.766a3.486,3.486,0,0,0,1.7.406A3.09,3.09,0,0,0,7.781-.844,3.357,3.357,0,0,0,8.969-2.109a7.036,7.036,0,0,0,.859-3.406,6.469,6.469,0,0,0-.891-3.594,3.646,3.646,0,0,0-3.281-1.516A4.481,4.481,0,0,0,3.188-8.656a5.947,5.947,0,0,0-.844,3.141A7,7,0,0,0,3.188-1.922Zm0,0" transform="translate(-0.578 11.328)"/>
      </g>
    </g>
  </g>
</svg>
